; generated by PrusaSlicer 2.5.2+linux-x64-GTK2 on 2024-04-01 at 20:46:34 UTC


;
;
; 

; external perimeters extrusion width = 0.45mm
; perimeters extrusion width = 0.45mm
; infill extrusion width = 0.45mm
; solid infill extrusion width = 0.45mm
; top infill extrusion width = 0.40mm
; support material extrusion width = 0.35mm
; first layer extrusion width = 0.42mm

M73 P0 R24
M73 Q0 S24
M201 X1000 Y1000 Z200 E5000 ; sets maximum accelerations, mm/sec^2
M203 X200 Y200 Z12 E120 ; sets maximum feedrates, mm / sec
M204 P1250 R1250 T1250 ; sets acceleration (P, T) and retract acceleration (R), mm/sec^2
M205 X8.00 Y8.00 Z0.40 E4.50 ; sets the jerk limits, mm/sec
M205 S0 T0 ; sets the minimum extruding and travel feed rate, mm/sec
M107
;TYPE:Custom
M862.3 P "MK3S" ; printer model check
M862.1 P0.4 ; nozzle diameter check
M115 U3.13.2 ; tell printer latest fw version
G90 ; use absolute coordinates
M83 ; extruder relative mode
M104 S215 ; set extruder temp
M140 S60 ; set bed temp
M190 S60 ; wait for bed temp
M109 S215 ; wait for extruder temp
G28 W ; home all without mesh bed level
G80 ; mesh bed leveling

G1 Z0.2 F720
G1 Y-3 F1000 ; go outside print area
G92 E0
G1 X60 E9 F1000 ; intro line
G1 X100 E12.5 F1000 ; intro line

G92 E0
M221 S95

; Don't change E values below. Excessive value can damage the printer.

M907 E538 ; set extruder motor current
G21 ; set units to millimeters
G90 ; use absolute coordinates
M83 ; use relative distances for extrusion
M900 K0.05 ; Filament gcode LA 1.5
M900 K30 ; Filament gcode LA 1.0
M107
;LAYER_CHANGE
;Z:0.2
;HEIGHT:0.2
;BEFORE_LAYER_CHANGE
G92 E0.0
;0.2


G1 E-.8 F2100
G1 Z.4 F720
;AFTER_LAYER_CHANGE
;0.2
G1 X110.843 Y86.907 F10800
G1 Z.2 F720
G1 E.8 F2100
M204 S800
;TYPE:Skirt/Brim
;WIDTH:0.42
G1 F1200
G1 X111.888 Y86.031 E.04278
G1 X112.828 Y85.837 E.03008
G1 X137.172 Y85.837 E.76327
G1 X138.479 Y86.229 E.04278
G1 X139.355 Y87.274 E.04278
G1 X139.549 Y88.214 E.03008
G1 X139.549 Y121.786 E1.05262
G1 X139.157 Y123.093 E.04278
G1 X138.112 Y123.969 E.04278
G1 X137.172 Y124.163 E.03008
G1 X112.828 Y124.163 E.76327
G1 X111.521 Y123.771 E.04278
G1 X110.645 Y122.726 E.04278
G1 X110.451 Y121.786 E.03008
G1 X110.451 Y88.214 E1.05262
G1 X110.826 Y86.965 E.0409
M204 S1000
; printing object david_isch_e_dumme.stl id:0 copy 0
;WIPE_START
G1 F8640
G1 X111.888 Y86.031 E-.32671
G1 X112.828 Y85.837 E-.22155
G1 X113.745 Y85.837 E-.21174
;WIPE_END
G1 E-.04 F2100
G1 Z.6 F720
G1 X121.022 Y91.68 F10800
G1 Z.2 F720
G1 E.8 F2100
M204 S800
;TYPE:Support material
G1 F1200
G1 X117.93 Y91.678 E.09697
G1 X117.224 Y91.696 E.02212
G1 X116.955 Y91.975 E.01215
G1 X116.96 Y114.094 E.69353
G1 X117.239 Y114.375 E.01242
M73 P1 R24
M73 Q1 S24
G1 X120.022 Y114.391 E.08727
G1 X120.022 Y119.206 E.15097
G1 X123.022 Y119.206 E.09406
G1 X123.022 Y121.786 E.08089
G1 X112.828 Y121.786 E.31962
G1 X112.828 Y88.214 E1.05262
G1 X121.022 Y88.214 E.25692
G1 X121.022 Y91.623 E.10689
M204 S1000
;WIPE_START
G1 F8640
G1 X121.022 Y88.332 E-.76
;WIPE_END
G1 E-.04 F2100
G1 Z.6 F720
G1 X122.486 Y121.616 F10800
G1 Z.2 F720
G1 E.8 F2100
M204 S800
G1 F1200
G1 X122.486 Y119.545 E.06493
G1 X122.067 Y119.545 E.01314
G1 X122.067 Y121.447 E.05961
G1 X121.648 Y121.447 E.01314
G1 X121.648 Y119.545 E.05961
G1 X121.229 Y119.545 E.01314
G1 X121.229 Y121.447 E.05961
G1 X120.81 Y121.447 E.01314
G1 X120.81 Y119.545 E.05961
G1 X120.391 Y119.545 E.01314
G1 X120.391 Y121.447 E.05961
G1 X119.972 Y121.447 E.01314
G1 X119.972 Y119.545 E.05961
G1 X119.683 Y119.545 E.00908
G1 X119.683 Y114.729 E.15103
G1 X119.553 Y114.728 E.00406
G1 X119.553 Y121.447 E.21066
G1 X119.134 Y121.447 E.01314
G1 X119.134 Y114.725 E.21074
G1 X118.715 Y114.723 E.01314
G1 X118.715 Y121.447 E.21081
G1 X118.296 Y121.447 E.01314
G1 X118.296 Y114.72 E.2109
G1 X117.877 Y114.718 E.01314
G1 X117.877 Y121.447 E.21097
G1 X117.458 Y121.447 E.01314
G1 X117.458 Y114.716 E.21104
G1 X117.097 Y114.714 E.01134
G1 X117.039 Y114.656 E.00255
G1 X117.039 Y121.447 E.21291
G1 X116.62 Y121.447 E.01314
G1 X116.62 Y88.553 E1.03134
G1 X116.201 Y88.553 E.01314
G1 X116.201 Y121.447 E1.03134
G1 X115.783 Y121.447 E.01314
G1 X115.783 Y88.553 E1.03134
G1 X115.364 Y88.553 E.01314
G1 X115.364 Y121.447 E1.03134
G1 X114.945 Y121.447 E.01314
M73 P2 R24
M73 Q2 S24
G1 X114.945 Y88.553 E1.03134
G1 X114.526 Y88.553 E.01314
G1 X114.526 Y121.447 E1.03134
G1 X114.107 Y121.447 E.01314
M73 P2 R23
G1 X114.107 Y88.553 E1.03134
G1 X113.688 Y88.553 E.01314
G1 X113.688 Y121.447 E1.03134
G1 X113.269 Y121.447 E.01314
M73 Q2 S23
G1 X113.269 Y88.384 E1.03666
M204 S1000
G1 X120.391 Y91.51 F10800
M204 S800
G1 F1200
G1 X120.391 Y88.553 E.09269
G1 X119.972 Y88.553 E.01314
G1 X119.972 Y91.34 E.08736
G1 X119.553 Y91.339 E.01314
G1 X119.553 Y88.553 E.08735
G1 X119.134 Y88.553 E.01314
G1 X119.134 Y91.339 E.08734
G1 X118.715 Y91.339 E.01314
G1 X118.715 Y88.553 E.08733
G1 X118.296 Y88.553 E.01314
G1 X118.296 Y91.339 E.08733
G1 X117.877 Y91.339 E.01314
G1 X117.877 Y88.553 E.08735
G1 X117.458 Y88.553 E.01314
G1 X117.458 Y91.348 E.08763
G1 X117.075 Y91.362 E.01203
G1 X117.039 Y91.399 E.00161
G1 X117.039 Y88.384 E.09455
M204 S1000
;WIPE_START
G1 F8640
G1 X117.039 Y91.399 E-.69627
G1 X117.075 Y91.362 E-.01187
G1 X117.3 Y91.354 E-.05185
;WIPE_END
G1 E-.04 F2100
G1 Z.6 F720
G1 X127.091 Y114.357 F10800
G1 Z.2 F720
G1 E.8 F2100
M204 S800
;TYPE:Support material interface
;WIDTH:0.35
G1 F1200
G1 X127.145 Y116.378 E.05161
G1 X127.075 Y118.122 E.04457
G1 X127.028 Y118.167 E.00165
G1 X127.028 Y118.842 E.01726
G1 X127.535 Y118.842 E.01295
G1 X127.535 Y114.355 E.11459
G1 X128.042 Y114.352 E.01295
G1 X128.042 Y118.842 E.11467
G1 X128.55 Y118.842 E.01295
G1 X128.55 Y114.349 E.11474
G1 X129.057 Y114.346 E.01295
G1 X129.057 Y118.842 E.11482
G1 X129.564 Y118.842 E.01295
G1 X129.564 Y114.343 E.1149
M204 S1000
;WIPE_START
G1 F8640
G1 X129.564 Y117.634 E-.76
;WIPE_END
G1 E-.04 F2100
G1 Z.6 F720
G1 X126.782 Y116.367 F10800
G1 Z.2 F720
G1 E.8 F2100
M204 S800
;TYPE:Support material
;WIDTH:0.42
G1 F1200
G1 X126.718 Y117.961 E.05001
G1 X126.683 Y117.994 E.00151
G1 X125.471 Y117.994 E.03799
G1 X125.436 Y117.959 E.00156
G1 X125.436 Y116.172 E.05605
G1 X124.556 Y116.172 E.0276
G1 X124.556 Y117.959 E.05605
G1 X124.521 Y117.994 E.00156
G1 X123.43 Y117.994 E.0342
G1 X123.395 Y117.961 E.00151
G1 X123.331 Y116.369 E.04994
G1 X123.384 Y114.408 E.06153
G1 X126.729 Y114.407 E.10488
G1 X126.78 Y116.311 E.0597
M204 S1000
G1 X126.257 Y117.825 F10800
M204 S800
M73 Q3 S23
G1 F1200
G1 X126.257 Y114.749 E.09643
G1 X125.838 Y114.751 E.01314
G1 X125.838 Y117.655 E.09106
G1 X125.775 Y117.655 E.00196
M73 P3 R23
G1 X125.775 Y115.832 E.05715
G1 X125.419 Y115.832 E.01118
G1 X125.419 Y114.751 E.03391
G1 X125 Y114.751 E.01314
G1 X125 Y115.832 E.03391
G1 X124.581 Y115.832 E.01314
G1 X124.581 Y114.751 E.03391
G1 X124.162 Y114.751 E.01314
G1 X124.162 Y117.655 E.09106
G1 X123.743 Y117.655 E.01314
G1 X123.743 Y114.579 E.09644
M204 S1000
;WIPE_START
G1 F8640
G1 X123.743 Y117.655 E-.71025
G1 X123.959 Y117.655 E-.04975
;WIPE_END
G1 E-.04 F2100
G1 Z.6 F720
G1 X125 Y116.535 F10800
G1 Z.2 F720
G1 E.8 F2100
M204 S800
;TYPE:Support material interface
;WIDTH:0.35
G1 F1200
G1 X125 Y118.842 E.05891
G1 X125.507 Y118.842 E.01295
G1 X125.507 Y118.358 E.01237
G1 X126.014 Y118.358 E.01295
G1 X126.014 Y118.842 E.01237
G1 X126.521 Y118.842 E.01295
G1 X126.521 Y118.358 E.01237
G1 X126.829 Y118.358 E.00786
G1 X126.918 Y118.273 E.00313
M204 S1000
;WIPE_START
G1 F8640
G1 X126.829 Y118.358 E-.02832
G1 X126.521 Y118.358 E-.07109
G1 X126.521 Y118.842 E-.11187
G1 X126.014 Y118.842 E-.11709
G1 X126.014 Y118.358 E-.11187
G1 X125.507 Y118.358 E-.11709
G1 X125.507 Y118.842 E-.11187
G1 X125.114 Y118.842 E-.0908
;WIPE_END
G1 E-.04 F2100
G1 Z.6 F720
G1 X124.754 Y118.275 F10800
G1 Z.2 F720
G1 E.8 F2100
M204 S800
G1 F1200
G1 X124.671 Y118.358 E.003
G1 X124.493 Y118.358 E.00456
G1 X124.493 Y118.842 E.01237
G1 X123.986 Y118.842 E.01295
G1 X123.986 Y118.358 E.01237
G1 X123.479 Y118.358 E.01295
G1 X123.479 Y118.842 E.01237
G1 X122.972 Y118.842 E.01295
G1 X122.972 Y114.357 E.11453
G1 X122.465 Y114.354 E.01295
G1 X122.465 Y118.842 E.11461
G1 X121.958 Y118.842 E.01295
G1 X121.958 Y114.351 E.11469
G1 X121.45 Y114.348 E.01295
G1 X121.45 Y118.842 E.11476
G1 X120.943 Y118.842 E.01295
G1 X120.943 Y114.345 E.11484
G1 X120.436 Y114.342 E.01295
G1 X120.436 Y118.842 E.11492
M204 S1000
;WIPE_START
G1 F8640
G1 X120.436 Y115.551 E-.76
;WIPE_END
G1 E-.04 F2100
G1 Z.6 F720
G1 X137.172 Y121.786 F10800
G1 Z.2 F720
G1 E.8 F2100
M204 S800
;TYPE:Support material
;WIDTH:0.42
G1 F1200
G1 X126.978 Y121.786 E.31962
G1 X126.978 Y119.206 E.08089
G1 X129.978 Y119.206 E.09406
G1 X129.978 Y114.392 E.15095
G1 X132.766 Y114.375 E.08742
G1 X133.045 Y114.094 E.01241
G1 X133.045 Y91.97 E.69368
G1 X132.764 Y91.689 E.01247
G1 X128.978 Y91.685 E.1187
G1 X128.978 Y88.214 E.10881
G1 X137.172 Y88.214 E.25692
G1 X137.172 Y121.729 E1.05085
M204 S1000
G1 X136.731 Y121.616 F10800
M204 S800
G1 F1200
G1 X136.731 Y88.553 E1.03666
G1 X136.312 Y88.553 E.01314
G1 X136.312 Y121.447 E1.03134
G1 X135.893 Y121.447 E.01314
G1 X135.893 Y88.553 E1.03134
G1 X135.474 Y88.553 E.01314
G1 X135.474 Y121.447 E1.03134
G1 X135.055 Y121.447 E.01314
M73 P4 R23
M73 Q4 S23
G1 X135.055 Y88.553 E1.03134
G1 X134.636 Y88.553 E.01314
G1 X134.636 Y121.447 E1.03134
G1 X134.217 Y121.447 E.01314
G1 X134.217 Y88.553 E1.03134
G1 X133.799 Y88.553 E.01314
G1 X133.799 Y121.447 E1.03134
G1 X133.38 Y121.447 E.01314
G1 X133.38 Y88.553 E1.03134
G1 X132.961 Y88.553 E.01314
G1 X132.961 Y91.406 E.08944
G1 X132.904 Y91.35 E.0025
G1 X132.542 Y91.35 E.01137
G1 X132.542 Y88.553 E.08768
G1 X132.123 Y88.553 E.01314
G1 X132.123 Y91.348 E.08762
G1 X131.704 Y91.347 E.01314
G1 X131.704 Y88.553 E.08759
G1 X131.285 Y88.553 E.01314
G1 X131.285 Y91.347 E.08758
G1 X130.866 Y91.346 E.01314
G1 X130.866 Y88.553 E.08757
G1 X130.447 Y88.553 E.01314
G1 X130.447 Y91.346 E.08756
G1 X130.028 Y91.346 E.01314
G1 X130.028 Y88.553 E.08755
G1 X129.609 Y88.553 E.01314
G1 X129.609 Y91.515 E.09287
M204 S1000
;WIPE_START
G1 F8640
G1 X129.609 Y88.553 E-.68389
G1 X129.938 Y88.553 E-.07611
;WIPE_END
G1 E-.04 F2100
G1 Z.6 F720
G1 X132.961 Y121.616 F10800
G1 Z.2 F720
G1 E.8 F2100
M204 S800
G1 F1200
G1 X132.961 Y114.661 E.21809
G1 X132.908 Y114.713 E.00233
G1 X132.542 Y114.716 E.01149
G1 X132.542 Y121.447 E.21104
G1 X132.123 Y121.447 E.01314
G1 X132.123 Y114.719 E.21095
G1 X131.704 Y114.721 E.01314
G1 X131.704 Y121.447 E.21087
G1 X131.285 Y121.447 E.01314
G1 X131.285 Y114.724 E.21079
G1 X130.866 Y114.726 E.01314
G1 X130.866 Y121.447 E.21071
G1 X130.447 Y121.447 E.01314
G1 X130.447 Y114.729 E.21064
G1 X130.317 Y114.729 E.00406
M73 Q5 S23
G1 X130.317 Y119.545 E.15101
G1 X130.028 Y119.545 E.00908
M73 P5 R23
G1 X130.028 Y121.447 E.05961
G1 X129.609 Y121.447 E.01314
G1 X129.609 Y119.545 E.05961
G1 X129.19 Y119.545 E.01314
G1 X129.19 Y121.447 E.05961
G1 X128.771 Y121.447 E.01314
G1 X128.771 Y119.545 E.05961
G1 X128.352 Y119.545 E.01314
G1 X128.352 Y121.447 E.05961
G1 X127.933 Y121.447 E.01314
G1 X127.933 Y119.545 E.05961
G1 X127.514 Y119.545 E.01314
G1 X127.514 Y121.616 E.06493
M204 S1000
;WIPE_START
G1 F8640
G1 X127.514 Y119.545 E-.47814
G1 X127.933 Y119.545 E-.09674
G1 X127.933 Y120.347 E-.18511
;WIPE_END
G1 E-.04 F2100
G1 Z.6 F720
G1 X131.778 Y113.114 F10800
G1 Z.2 F720
G1 E.8 F2100
M204 S800
;TYPE:Perimeter
;WIDTH:0.419999
G1 F1200
G1 X125.889 Y113.144 E.18463
G1 X118.227 Y113.113 E.24026
G1 X118.222 Y92.946 E.63231
G1 X131.778 Y92.956 E.42501
G1 X131.778 Y113.054 E.63016
M204 S1000
G1 X132.155 Y113.489 F10800
M204 S800
;TYPE:External perimeter
G1 F1200
G1 X125.889 Y113.522 E.19645
G1 X117.85 Y113.489 E.25209
G1 X117.845 Y92.572 E.65583
G1 X132.155 Y92.579 E.44866
G1 X132.155 Y113.429 E.65373
M204 S1000
G1 X131.775 Y113.363 F10800
;WIPE_START
G1 F8640
G1 X128.864 Y113.478 E-.76
;WIPE_END
G1 E-.04 F2100
G1 Z.6 F720
G1 X131.608 Y93.889 F10800
G1 Z.2 F720
G1 E.8 F2100
M204 S800
;TYPE:Solid infill
;WIDTH:0.420491
G1 F1200
G1 X131.014 Y93.294 E.02638
G1 X130.479 Y93.294 E.01678
G1 X131.438 Y94.253 E.04257
G1 X131.438 Y94.787 E.01676
G1 X129.945 Y93.294 E.0663
G1 X129.411 Y93.293 E.01678
G1 X131.438 Y95.321 E.09002
G1 X131.438 Y95.855 E.01676
G1 X128.876 Y93.293 E.11375
G1 X128.342 Y93.292 E.01678
G1 X131.438 Y96.389 E.13748
G1 X131.438 Y96.923 E.01676
G1 X127.808 Y93.292 E.1612
G1 X127.273 Y93.291 E.01678
G1 X131.438 Y97.457 E.18493
G1 X131.438 Y97.991 E.01676
G1 X126.739 Y93.291 E.20866
G1 X126.204 Y93.291 E.01678
G1 X131.438 Y98.525 E.23238
G1 X131.438 Y99.059 E.01676
G1 X125.67 Y93.29 E.25611
G1 X125.136 Y93.29 E.01678
G1 X131.438 Y99.593 E.27984
G1 X131.438 Y100.126 E.01676
G1 X124.601 Y93.289 E.30356
G1 X124.067 Y93.289 E.01678
G1 X131.438 Y100.66 E.32729
G1 X131.438 Y101.194 E.01676
G1 X123.532 Y93.289 E.35102
G1 X122.998 Y93.288 E.01678
G1 X131.438 Y101.728 E.37474
G1 X131.438 Y102.262 E.01676
M73 P6 R23
M73 Q6 S23
G1 X122.464 Y93.288 E.39847
G1 X121.929 Y93.287 E.01678
G1 X131.438 Y102.796 E.42219
G1 X131.438 Y103.33 E.01676
G1 X121.395 Y93.287 E.44592
G1 X120.861 Y93.286 E.01678
G1 X131.438 Y103.864 E.46965
G1 X131.438 Y104.398 E.01676
G1 X120.326 Y93.286 E.49337
G1 X119.792 Y93.286 E.01678
G1 X131.438 Y104.932 E.5171
G1 X131.438 Y105.466 E.01676
M73 P6 R22
G1 X119.257 Y93.285 E.54082
G1 X118.723 Y93.285 E.01678
G1 X131.438 Y106 E.56455
G1 X131.438 Y106.534 E.01676
G1 X118.562 Y93.658 E.5717
G1 X118.562 Y94.192 E.01677
G1 X131.438 Y107.068 E.5717
G1 X131.438 Y107.602 E.01676
M73 Q6 S22
G1 X118.562 Y94.726 E.57169
G1 X118.562 Y95.26 E.01677
G1 X131.438 Y108.136 E.57169
G1 X131.438 Y108.67 E.01676
G1 X118.562 Y95.794 E.57168
G1 X118.562 Y96.328 E.01677
G1 X131.438 Y109.204 E.57168
G1 X131.438 Y109.738 E.01676
G1 X118.563 Y96.862 E.57167
G1 X118.563 Y97.396 E.01677
G1 X131.438 Y110.272 E.57167
G1 X131.438 Y110.806 E.01676
G1 X118.563 Y97.93 E.57166
G1 X118.563 Y98.464 E.01677
M73 P7 R22
M73 Q7 S22
G1 X131.438 Y111.34 E.57166
G1 X131.438 Y111.874 E.01676
G1 X118.563 Y98.998 E.57165
G1 X118.563 Y99.533 E.01677
G1 X131.438 Y112.408 E.57165
G1 X131.438 Y112.776 E.01157
G1 X131.274 Y112.777 E.00517
G1 X118.563 Y100.067 E.56433
G1 X118.563 Y100.601 E.01677
G1 X130.742 Y112.78 E.54074
G1 X130.211 Y112.783 E.01668
G1 X118.563 Y101.135 E.51715
G1 X118.564 Y101.669 E.01677
G1 X129.68 Y112.785 E.49356
G1 X129.149 Y112.788 E.01668
G1 X118.564 Y102.203 E.46997
G1 X118.564 Y102.737 E.01677
G1 X128.618 Y112.791 E.44639
G1 X128.086 Y112.794 E.01668
G1 X118.564 Y103.271 E.4228
G1 X118.564 Y103.805 E.01677
G1 X127.555 Y112.796 E.39921
G1 X127.024 Y112.799 E.01668
G1 X118.564 Y104.339 E.37562
G1 X118.564 Y104.873 E.01677
G1 X126.493 Y112.802 E.35203
G1 X125.962 Y112.805 E.01668
G1 X118.564 Y105.407 E.32844
G1 X118.564 Y105.941 E.01677
G1 X125.426 Y112.803 E.30466
G1 X124.89 Y112.801 E.01683
G1 X118.565 Y106.476 E.28085
G1 X118.565 Y107.01 E.01677
G1 X124.354 Y112.799 E.25704
G1 X123.818 Y112.797 E.01683
G1 X118.565 Y107.544 E.23323
G1 X118.565 Y108.078 E.01677
G1 X123.282 Y112.794 E.20942
G1 X122.745 Y112.792 E.01683
G1 X118.565 Y108.612 E.18561
G1 X118.565 Y109.146 E.01677
G1 X122.209 Y112.79 E.1618
G1 X121.673 Y112.788 E.01683
G1 X118.565 Y109.68 E.13799
G1 X118.565 Y110.214 E.01677
M73 Q8 S22
G1 X121.137 Y112.786 E.11418
G1 X120.601 Y112.783 E.01683
M73 P8 R22
G1 X118.565 Y110.748 E.09037
G1 X118.566 Y111.282 E.01677
G1 X120.065 Y112.781 E.06656
G1 X119.528 Y112.779 E.01683
G1 X118.566 Y111.816 E.04274
G1 X118.566 Y112.35 E.01677
G1 X119.163 Y112.947 E.0265
M204 S1000
; stop printing object david_isch_e_dumme.stl id:0 copy 0
M106 S84.15
;LAYER_CHANGE
;Z:0.4
;HEIGHT:0.2
;BEFORE_LAYER_CHANGE
G92 E0.0
;0.4


;WIPE_START
G1 F8640
G1 X118.566 Y112.35 E-.1949
G1 X118.566 Y111.816 E-.12332
G1 X119.528 Y112.779 E-.31438
G1 X120.065 Y112.781 E-.1238
G1 X120.054 Y112.77 E-.0036
;WIPE_END
G1 E-.04 F2100
G1 Z.6 F720
;AFTER_LAYER_CHANGE
;0.4
G1 X110.451 Y112.77 F10800
G1 Z.4 F720
G1 E.8 F2100
;TYPE:Skirt/Brim
;WIDTH:0.42
G1 F3000
G1 X110.451 Y88.214 E.76994
G1 X110.843 Y86.907 E.04278
G1 X111.888 Y86.031 E.04278
G1 X112.828 Y85.837 E.03008
G1 X137.172 Y85.837 E.76327
